!!!OTL: ES SPIELT EIN RITTER MIT EINER MAGD
!!!ARE: Europa, Mitteleuropa, Deutschland, Brandenburg; Schlesien; Sachsen
!!!SCT: E0110B
!!!YEM: Copyright 1995, estate of Helmut Schaffrath.
**kern
*ICvox
*Ivox
*M2/4
*k[b-e-]
*B-:
{8f
=1
8b-
8f
8d
8f
=2
8b-
8b-
8b-}
{8dd
=3
8.cc
16a
8b-
8g
=4
8g
8f
8f}
{16f
16f
=5
8g
8g
8g
16g
16g
=6
8f
8f
8f}
{8f
=7
8b-
8b-
8dd
8b-
=8
4cc
8b-}
==
!!!AGN: erzaehlendes Volks - Lied, Sage, Liebe, Leid, Tod, Ballade ?
!!!ONB: ESAC (Essen Associative Code) Database: ERK1
!!!AMT: simple duple
!!!AIN: vox
!!!EED: Helmut Schaffrath
!!!EEV: 1.0
*-
